!! 00000] TT[WS
!!!OTL: Cai cha
!!!ARE: Asia, China, Shanxi Dingxiang
!! Ethnic Group: Han
!! WI, 75 (1)
!!!SCT: J0090
!!!YEM: Copyright 1995, estate of Helmut Schaffrath.
**kern
*ICvox
*Ivox
*M2/4
*k[f#]
*G:
{8e
8g
8dd
8ee
=1
4.g
8a
=2
8b
8dd
8a
8b
=3
4dd
8dd
8b
=4
2a}
=5
{8a
8b
8dd
8dd
=6
8a
8b
8a
8g
=7
8e
8d
[4g
=8
4g]
8a
8g
=9
8e
8g
[4d
=10
8d]
8e
4d}
==
!!!AGN: Xiaodiao. Laodong, Shouhuo
!!!ONB: ESAC (Essen Associative Code) Database: CHINA
!!!AMT: simple duple
!!!AIN: vox
!!!EED: Helmut Schaffrath
!!!EEV: 1.0
*-
!!!ONB: Tied note syntax fixed by Craig Sapp, 2004/05/03/
